X: 41
T:New High Level
% Nottingham Music Database
S:NPTB, via EF
M:4/4
L:1/4
K:G
D|"G"GD/2G/2 BG/2B/2|"G"de/2d/2 c/2B/2A/2G/2|"D7"FD/2F/2 AF/2A/2|\
"D7"df/2e/2 d/2c/2B/2A/2|
"G"GD/2G/2 BG/2B/2|"G"de/2d/2 c/2B/2A/2G/2|"D7"FD/2F/2 A/2c/2A/2F/2|"G"GB G:||:
K:D
A/2G/2|"D"F/2A/2d/2A/2 f/2A/2d/2A/2|"D"F/2A/2d/2A/2 f/2A/2d/2A/2|\
"A7"c/2A/2c/2e/2 g/2e/2c/2A/2|
"A7"c/2A/2c/2e/2 g/2e/2c/2A/2|"D"F/2A/2d/2A/2 f/2A/2d/2A/2|\
"D"F/2A/2d/2A/2 f/2A/2d/2A/2|"A7"c/A/c/e/ g/e/c/e/|[1"D"d f d :|"D"dc BA||


